X: 16595
T: Hand Me Down The Tacklings
R: reel
M: 4/4
K: Dmajor
A(d{e}d)e f/a/f ed|cAAB cAGB|A(d{e}d)e f/a/f ef|{a}gecd e(d{e}d)c|
A(d{e}d)e f2ed|cAAB c/B/A GB|Adde fAef|g/f/e cd e(d{e}d)c||
dfab a(g{a}g)f|e(g{a}g)f (g>{a}g) fe|dfab a(g{a}g)f|{a}gecd e(d{e}d)c|
dfab a(g{a}g)f|e(g{a}g)f (g>{a}g) eg|~f3d e(a{b}a)f|g/f/e cd e(d{e}d2)||

